X:1
T:Boys Of Ballisodare, The
M:9/8
L:1/8
R:slip jig
K:Gmaj
|:D2 EG2 AB2 d|ege d2 eg3|D2 EG2 Bd2 B|AGA B2 GE2 G|
|D2 EG2 AB2 d|ege d2 eg2 a|b2 ag2 ed2 B|AGA B2 GE2 G:||
|:B2 dd2 Bd2 B|dBd e2 fg3|B2 dd2 Bd2 B|AGA B2 GE2 G|
|B2 dd2 Bd2 B|dBd e2 fg2 a|b2 ag2 ed2 B|AGA B2 GE2 G:||
